src/assets/icons/icon-github.svg

<svg width="216" height="216" viewBox="0 0 216 216" fill="none" xmlns="http://www.w3.org/2000/svg">
<path fill-rule="evenodd" clip-rule="evenodd" d="M107.562 33C65.7784 33 32 67.1457 32 109.389C32 143.156 53.643 171.739 83.6675 181.855C87.4213 182.616 88.7964 180.211 88.7964 178.189C88.7964 176.418 88.6726 170.348 88.6726 164.023C67.653 168.577 63.2758 154.917 63.2758 154.917C59.8978 146.064 54.8927 143.789 54.8927 143.789C48.013 139.109 55.3938 139.109 55.3938 139.109C63.0253 139.615 67.0297 146.95 67.0297 146.95C73.7841 158.585 84.6682 155.297 89.0469 153.274C89.6718 148.341 91.6748 144.926 93.8015 143.03C77.0368 141.259 59.3982 134.683 59.3982 105.341C59.3982 96.9937 62.3988 90.1645 67.1534 84.8533C66.4032 82.9567 63.7754 75.1141 67.9051 64.6174C67.9051 64.6174 74.2852 62.5935 88.6711 72.4585C94.8302 70.7863 101.182 69.9357 107.562 69.9286C113.943 69.9286 120.446 70.8148 126.452 72.4585C140.84 62.5935 147.22 64.6174 147.22 64.6174C151.35 75.1141 148.72 82.9567 147.97 84.8533C152.85 90.1645 155.727 96.9937 155.727 105.341C155.727 134.683 138.088 141.132 121.198 143.03C123.951 145.432 126.327 149.985 126.327 157.194C126.327 167.438 126.203 175.659 126.203 178.187C126.203 180.211 127.58 182.616 131.332 181.857C161.357 171.737 183 143.156 183 109.389C183.123 67.1457 149.221 33 107.562 33Z" fill="#24292F"/>
</svg>

<svg width="216" height="216" fill="none" xmlns="http://www.w3.org/2000/svg"><path fill-rule="evenodd" clip-rule="evenodd" d="M107.562 33C65.778 33 32 67.146 32 109.389c0 33.767 21.643 62.35 51.668 72.466 3.753.761 5.128-1.644 5.128-3.666 0-1.771-.123-7.841-.123-14.166-21.02 4.554-25.397-9.106-25.397-9.106-3.378-8.853-8.383-11.128-8.383-11.128-6.88-4.68.5-4.68.5-4.68 7.632.506 11.637 7.841 11.637 7.841 6.754 11.635 17.638 8.347 22.017 6.324.625-4.933 2.628-8.348 4.755-10.244-16.765-1.771-34.404-8.347-34.404-37.689 0-8.347 3-15.176 7.755-20.488-.75-1.896-3.378-9.739.752-20.236 0 0 6.38-2.024 20.766 7.841a72.405 72.405 0 0 1 18.891-2.53c6.381 0 12.884.887 18.89 2.53 14.388-9.864 20.768-7.84 20.768-7.84 4.13 10.496 1.5 18.339.75 20.235 4.88 5.312 7.757 12.14 7.757 20.488 0 29.342-17.639 35.791-34.529 37.689 2.753 2.402 5.129 6.955 5.129 14.164 0 10.244-.124 18.465-.124 20.993 0 2.024 1.377 4.429 5.129 3.67C161.357 171.737 183 143.156 183 109.389 183.123 67.146 149.221 33 107.562 33Z" fill="#24292F"/></svg>
